X:1
T:Gather your rosebuds while you may
T:William Lawes  (1602-1645)
T:Poem "To the virgins, to make much of time" by Robert Herrick (1591-1674)
T:Gather your rosebuds while you may
T:Copyright © 
C:William Lawes  (1602-1645)
Z:Poem "To the virgins, to make much of time"
Z:by Robert Herrick (1591-1674)
Z:Copyright ©
%%score [ 1 2 3 ] 4
L:1/8
M:2/2
K:C
V:1 treble nm="Treble" snm="Tr."
V:2 treble-8 transpose=-12 nm="Tenor" snm="T."
V:3 bass nm="Bass" snm="B."
V:4 bass nm="P4"
V:1
 d2 dd d3 c | B2 (A>G) G3 B | B3 A (GA) (Bc) | d d3 || A2 AB | c3 d e2 (dc) | B3 c d2 (cB) | %7
w: Ga- ther your rose- buds|while you _ may, old|time is still _ a _|fly- ing.|And that same|flower that smiles to- *|day, to- mor- row _|
w: The glo- rious lamp of|heaven, the _ sun, the|high- er he _ is _|get- ting,|the soon- er|will his race be _|run, and nea- rer _|
w: That age is best that|is the _ first, while|youth and blood _ are _|war- mer;|ex- pect not|the last and worst, _|time still suc- ceeds _|
w: Then be not coy, but|use your _ time, and|while you may * go _|mar- ry,|for ha- ving|once but lost your _|prime, you may for _|
 A3 G G G3 |] %8
w: will be dy- ing.|
w: he's to set- ting.|
w: the for- * mer.|
w: e- ver tar- ry.|
V:2
 B2 BB A3 d | G2 A/B/c/d/ B3 d | d3 d G3 ^F | A A3 || ^F2 FG | A2 (ed) c2 (BA) | G2 d2 d2 G2 | %7
w: Ga- ther your rose- buds|while you _ _ _ may, old|time is still a|fly- ing.|And that same|flower that * smiles to- *|day, to- mor- row|
w: The glo- rious lamp of|heaven, the _ _ _ sun, the|high- er he is|get- ting,|The glo- rious|lamp of * heaven, the _|sun, the high- er|
w: That age is best that|is the _ _ _ first, while|youth and blood are|war- mer;|Ex- pect not|the last _ and worst, _|time still suc- ceeds|
w: Then be not coy, but|use your _ _ _ time, and|while you may go|mar- ry,|for ha- ving|once but * lost your _|prime, you may for|
 ^F3 G G G3 |] %8
w: will be dy- ing.|
w: he is get- ting,|
w: the for- * mer.|
w: e- ver tar- ry.|
V:3
 G,2 G,G, ^F,3 F, | ^F,2 D,2 G,,3 G, | G,3 ^F, E,3 E, | D, D,3 || D,2 D,D, | %5
w: Ga- ther your rose- buds|while you may, old|time is still a-|fly- *|And that same|
w: The glo- rious lamp of|heaven, the sun, the|high- er he is|get- *|The glo- rious|
w: That age is best that|is the first, while|youth and blood are|war- *|ex- pect not|
w: Then be not coy, but|use your time, and|while you may go|mar- *|for ha- ving|
 A,,3 B,, (C,D,) (E,^F,) | G,3 A, B,2 B,,2 | D,3 D, G,, G,,3 |] %8
w: flower that * smiles to- *|day, to- mor- row|will be dy- ing.|
w: lamp of * heaven, the _|sun, the high- er|he is get- ting,|
w: the last and * worst, _|time still suc- ceeds|the for- * mer.|
w: once but lost * your _|prime, you may for|e- ver tar- ry.|
V:4
 G,4 ^F,4 | ^F,2 D,2 G,,3 G, | G,3 ^F, E,4 | D,4 || D,4 | A,,3 B,, C,D,E,^F, | G,3 A, B,2 B,,2 | %7
 D,4 G,,4 |] %8

